**kern	**silbe	**kern	**silbe	**harmony	**phrase	**leadinstrument	**rhyme	**timestamp	**harte
*ICvox	*	*ICvox	*	*M4/4	*	*	*	*	*M4/4
*VRlead	*	*VRharmonize	*	*	*	*	*	*	*
*Hstimme	*	*Nstimme	*	*	*	*	*	*	*
*A:	*	*A:	*	*A:	*	*	*	*	*A:
*M4/4	*	*M4/4	*	*	*	*	*	*	*
*clefF4	*	*clefG2	*	*	*	*	*	*	*
r;	.	r;	.	1r;	.	r	.	0	N.C.
r;	.	r;	.	1r;	.	r	.	0.041	N.C.
=1	=1	=1	=1	=1	=1	=1	=1	=1	=1
*>Label>Intro	*>Label>Intro	*>Label>Intro	*>Label>Intro	*>Label>Intro	*>Label>Intro	*>Label>Intro	*>Label>Intro	*>Label>Intro	*>Label>Intro
1r	.	1r	.	2DMM	newline	r	.	0.255	D:maj7
.	.	.	.	4C#mm	.	r	.	1.294	C#:min7
.	.	.	.	4Bmm	.	r	.	1.813	B:min7/b7
=2	=2	=2	=2	=2	=2	=2	=2	=2	=2
1r	.	1r	.	2C#mm	.	r	.	2.333	C#:min7
.	.	.	.	2F#mm	.	r	.	3.371	F#:min7
=3	=3	=3	=3	=3	=3	=3	=3	=3	=3
1r	.	1r	.	2DMM	.	r	.	4.41	D:maj7
.	.	.	.	4C#mm	.	r	.	5.449	C#:min7
.	.	.	.	4Bmm	.	r	.	5.968	B:min7/b7
=4	=4	=4	=4	=4	=4	=4	=4	=4	=4
1r	.	1r	.	2C#mm	.	r	.	6.487	C#:min7
.	.	.	.	2F#mm	.	r	.	7.526	F#:min7
=5	=5	=5	=5	=5	=5	=5	=5	=5	=5
1r	.	1r	.	2DMM	newline	r	.	8.565	D:maj7
.	.	.	.	4C#mm	.	r	.	9.53	C#:min7
.	.	.	.	4Bmm	.	r	.	10.013	B:min7/b7
=6	=6	=6	=6	=6	=6	=6	=6	=6	=6
1r	.	1r	.	2C#Mm	.	r	.	10.495	C#:7
.	.	.	.	2F#mm	.	r	.	11.46	F#:min7
=7	=7	=7	=7	=7	=7	=7	=7	=7	=7
1r	.	1r	.	1AMm	.	r	.	12.426	A:11
=8	=8	=8	=8	=8	=8	=8	=8	=8	=8
1r	.	1r	.	1AMm	.	r	.	14.356	A:11
=9	=9	=9	=9	=9	=9	=9	=9	=9	=9
1r	.	1r	.	1AMm	newline	r	.	16.287	A:11
=10	=10	=10	=10	=10	=10	=10	=10	=10	=10
2r	.	1r	.	1AMm	.	r	.	18.234	A:11
8r	.	.	.	.	.	.	.	.	.
8F#	Do	.	.	.	.	.	.	.	.
8A	you	.	.	.	.	.	.	.	.
8B	re-	.	.	.	.	.	.	.	.
=11	=11	=11	=11	=11	=11	=11	=11	=11	=11
*>Label>Verse	*>Label>Verse	*>Label>Verse	*>Label>Verse	*>Label>Verse	*>Label>Verse	*>Label>Verse	*>Label>Verse	*>Label>Verse	*>Label>Verse
*>Letter>A	*>Letter>A	*>Letter>A	*>Letter>A	*>Letter>A	*>Letter>A	*>Letter>A	*>Letter>A	*>Letter>A	*>Letter>A
8c#	-mem-	1r	.	2DMM	newline	voice	(A	20.181	D:maj7
8c#	-ber	.	.	.	.	.	a)	.	.
2r	.	.	.	.	.	.	.	.	.
.	.	.	.	4C#mm	.	voice	.	21.148	C#:min7
4r	.	.	.	4Bmm	.	voice	.	21.631	B:min7/b7
=12	=12	=12	=12	=12	=12	=12	=12	=12	=12
8c#	twen-	1r	.	2C#mm	.	voice	.	22.115	C#:min7
8e	-ty	.	.	.	.	.	.	.	.
8f#	first	.	.	.	.	.	.	.	.
8B	night	.	.	.	.	.	B	.	.
4A	_	.	.	2F#mm	.	voice	.	23.081	F#:min7
8c#	Sep-	.	.	.	.	.	.	.	.
8c#	-tem-	.	.	.	.	.	(A	.	.
=13	=13	=13	=13	=13	=13	=13	=13	=13	=13
4c#	-ber?.	1r	.	2DMM	.	voice	a)	24.048	D:maj7
2r	.	.	.	.	.	.	.	.	.
.	.	.	.	4C#mm	.	voice	.	25.014	C#:min7
8A	Love	.	.	4Bmm	.	voice	.	25.498	B:min7/b7
8B	was	.	.	.	.	.	.	.	.
=14	=14	=14	=14	=14	=14	=14	=14	=14	=14
8c#	chang-	1r	.	2C#mm	.	voice	.	25.981	C#:min7
8e	-ing	.	.	.	.	.	.	.	.
8f#	the	.	.	.	.	.	.	.	.
8B	minds	.	.	.	.	.	B	.	.
8A	_	.	.	2F#mm	.	voice	.	26.947	F#:min7
8A	of	.	.	.	.	.	.	.	.
8c#	pre-	.	.	.	.	.	.	.	.
8c#	-ten-	.	.	.	.	.	(A	.	.
=15	=15	=15	=15	=15	=15	=15	=15	=15	=15
4c#	-ders|	1r	.	2DMM	newline	voice	a)	27.914	D:maj7
2r	.	.	.	.	.	.	.	.	.
.	.	.	.	4C#mm	.	voice	.	28.877	C#:min7
8A	while	.	.	4Bmm	.	voice	.	29.359	B:min7/b7
8B	_	.	.	.	.	.	.	.	.
=16	=16	=16	=16	=16	=16	=16	=16	=16	=16
8c#	chas-	1r	.	2C#Mm	.	voice	.	29.84	C#:7
8e	-ing	.	.	.	.	.	.	.	.
8f#	the	.	.	.	.	.	.	.	.
16B	clouds	.	.	.	.	.	.	.	.
16c#	_	.	.	.	.	.	.	.	.
4B	_	.	.	2F#mm	.	voice	.	30.804	F#:min7
8A	a-	.	.	.	.	.	.	.	.
8B	-way.	.	.	.	.	.	.	.	.
=17	=17	=17	=17	=17	=17	=17	=17	=17	=17
[1A	_	1r	.	1AMm	.	voice	.	31.767	A:11
=18	=18	=18	=18	=18	=18	=18	=18	=18	=18
2A]	_	1r	.	1AMm	.	voice	.	33.693	A:11
8r	.	.	.	.	.	.	.	.	.
8c#	Our	.	.	.	.	.	.	.	.
8B	hearts	.	.	.	.	.	.	.	.
8A	were	.	.	.	.	.	.	.	.
=19	=19	=19	=19	=19	=19	=19	=19	=19	=19
8c#	ring-	1r	.	2DMM	newline	voice	(C	35.619	D:maj7
8c#	-ing	.	.	.	.	.	c)	.	.
4r	.	.	.	.	.	.	.	.	.
8r	.	.	.	4C#mm	.	voice	.	36.59	C#:min7
8A	in	.	.	.	.	.	.	.	.
8B	the	.	.	4Bmm	.	voice	.	37.076	B:min7/b7
[8c#	key	.	.	.	.	.	.	.	.
=20	=20	=20	=20	=20	=20	=20	=20	=20	=20
8c#]	_	1r	.	2C#mm	.	voice	.	37.561	C#:min7
8e	that	.	.	.	.	.	.	.	.
8f#	our	.	.	.	.	.	.	.	.
8B	souls	.	.	.	.	.	.	.	.
4A	_	.	.	2F#mm	.	voice	.	38.532	F#:min7
8A	were	.	.	.	.	.	(C	.	.
16c#	sing-	.	.	.	.	.	c)	.	.
16d	_	.	.	.	.	.	.	.	.
=21	=21	=21	=21	=21	=21	=21	=21	=21	=21
4c#	-ing|	1r	.	2DMM	.	voice	.	39.503	D:maj7
2r	.	.	.	.	.	.	.	.	.
.	.	.	.	4C#mm	.	voice	.	40.474	C#:min7
8A	as	.	.	4Bmm	.	voice	.	40.959	B:min7/b7
8B	we	.	.	.	.	.	.	.	.
=22	=22	=22	=22	=22	=22	=22	=22	=22	=22
8c#	danced	1r	.	2C#mm	.	voice	.	41.445	C#:min7
8e	in	.	.	.	.	.	.	.	.
8f#	the	.	.	.	.	.	.	.	.
8B	night.	.	.	.	.	.	B	.	.
4A	_	.	.	2F#mm	.	voice	.	42.416	F#:min7
8c#	Re-	.	.	.	.	.	.	.	.
8c#	-mem-	.	.	.	.	.	(A	.	.
=23	=23	=23	=23	=23	=23	=23	=23	=23	=23
4c#	-ber	1r	.	2DMM	newline	voice	a)	43.387	D:maj7
2r	.	.	.	.	.	.	.	.	.
.	.	.	.	4C#mm	.	voice	.	44.354	C#:min7
8A	how	.	.	4Bmm	.	voice	.	44.837	B:min7/b7
8B	the	.	.	.	.	.	.	.	.
=24	=24	=24	=24	=24	=24	=24	=24	=24	=24
8c#	stars	1r	.	2C#Mm	.	voice	.	45.321	C#:7
8e	stole	.	.	.	.	.	.	.	.
8f#	the	.	.	.	.	.	.	.	.
16c#	night	.	.	.	.	.	B	.	.
16B	_	.	.	.	.	.	.	.	.
4A	_	.	.	2F#mm	.	voice	.	46.288	F#:min7
8A	a-	.	.	.	.	.	.	.	.
8B	-way.	.	.	.	.	.	.	.	.
=25	=25	=25	=25	=25	=25	=25	=25	=25	=25
[2A	_	1r	.	1AMm	.	voice	.	47.255	A:11
8A]	_	.	.	.	.	.	.	.	.
16F#	_	.	.	.	.	.	.	.	.
16E	_	.	.	.	.	.	.	.	.
16F#	_	.	.	.	.	.	.	.	.
16E	_	.	.	.	.	.	.	.	.
8C#	_	.	.	.	.	.	.	.	.
=26	=26	=26	=26	=26	=26	=26	=26	=26	=26
16C#	_	8r	.	1AMm	.	voice	.	49.189	A:11
16BB	_	.	.	.	.	.	.	.	.
8AA	_	8f#	[Ah	.	.	.	.	.	.
2r	.	8r	.	.	.	.	.	.	.
.	.	8a	ah	.	.	.	.	.	.
.	.	8r	.	.	.	.	.	.	.
.	.	8b	ah.]	.	.	.	.	.	.
4r	.	8a	_	.	.	.	.	.	.
.	.	8r	.	.	.	.	.	.	.
=27	=27	=27	=27	=27	=27	=27	=27	=27	=27
*>Letter>C	*>Letter>C	*>Letter>C	*>Letter>C	*>Letter>C	*>Letter>C	*>Letter>C	*>Letter>C	*>Letter>C	*>Letter>C
*>Label>Chorus	*>Label>Chorus	*>Label>Chorus	*>Label>Chorus	*>Label>Chorus	*>Label>Chorus	*>Label>Chorus	*>Label>Chorus	*>Label>Chorus	*>Label>Chorus
1r	.	4cc#	[Ba-	2Bmm	newline	voice	.	51.124	B:min7
.	.	8dd	-de-	.	.	.	.	.	.
.	.	4.cc#	-ya.]	.	.	.	.	.	.
.	.	.	.	2EMm	.	voice	.	52.089	E:9
.	.	4r	.	.	.	.	.	.	.
=28	=28	=28	=28	=28	=28	=28	=28	=28	=28
1r	.	8cc#	Say	2C#mm	.	voice	.	53.054	C#:min7
.	.	8dd	do	.	.	.	.	.	.
.	.	8cc#	you	.	.	.	.	.	.
.	.	8b	re-	.	.	.	.	.	.
.	.	4a	-mem-	2F#mm	.	voice	(A	54.019	F#:min7
.	.	8b	-ber	.	.	.	a)	.	.
.	.	8r	.	.	.	.	.	.	.
=29	=29	=29	=29	=29	=29	=29	=29	=29	=29
1r	.	4cc#	[Ba-	2Bmm	.	voice	.	54.984	B:min7
.	.	8dd	-de-	.	.	.	.	.	.
.	.	4.cc#	-ya]	.	.	.	.	.	.
.	.	.	.	2EMm	.	voice	.	55.95	E:9
.	.	4r	.	.	.	.	.	.	.
=30	=30	=30	=30	=30	=30	=30	=30	=30	=30
1r	.	8cc#	danc-	2AMM	.	voice	.	56.915	A:maj9/3
.	.	8dd	-ing	.	.	.	.	.	.
.	.	8cc#	in	.	.	.	.	.	.
.	.	8b	Sep-	.	.	.	.	.	.
.	.	4a	-tem-	2F#mm	.	voice	(A	57.88	F#:min7
.	.	8b	-ber?.	.	.	.	a)	.	.
.	.	8r	.	.	.	.	.	.	.
=31	=31	=31	=31	=31	=31	=31	=31	=31	=31
1r	.	4cc#	[Ba-	2Bmm	newline	voice	.	58.845	B:min7
.	.	8dd	-de-	.	.	.	.	.	.
.	.	4.cc#	-ya]	.	.	.	.	.	.
.	.	.	.	2EMm	.	voice	.	59.811	E:9
.	.	4r	.	.	.	.	.	.	.
=32	=32	=32	=32	=32	=32	=32	=32	=32	=32
1r	.	8cc#	ne-	2C#mm	.	voice	.	60.777	C#:min7
.	.	8dd	-ver	.	.	.	.	.	.
.	.	8cc#	was	.	.	.	.	.	.
.	.	8b	a	.	.	.	.	.	.
.	.	4a	cloud-	2F#mm	.	voice	.	61.743	F#:min7
.	.	8f#	-y	.	.	.	.	.	.
.	.	8b	day.	.	.	.	D	.	.
=33	=33	=33	=33	=33	=33	=33	=33	=33	=33
1r	.	[1a	_	1AM	.	voice	.	62.708	A:sus4(b7,9)
=34	=34	=34	=34	=34	=34	=34	=34	=34	=34
1r	.	2a]	_	1AM	.	voice	.	64.64	A:sus4(b7,9)
.	.	2r	.	.	.	.	.	.	.
=35	=35	=35	=35	=35	=35	=35	=35	=35	=35
*>Letter>A	*>Letter>A	*>Letter>A	*>Letter>A	*>Letter>A	*>Letter>A	*>Letter>A	*>Letter>A	*>Letter>A	*>Letter>A
*>Label>Verse	*>Label>Verse	*>Label>Verse	*>Label>Verse	*>Label>Verse	*>Label>Verse	*>Label>Verse	*>Label>Verse	*>Label>Verse	*>Label>Verse
4A	[Ba-	4a	[Ba-	2DMM	newline	voice	.	66.572	D:maj7
8F#	-du-	8f#	-du-	.	.	.	.	.	.
8E	-a,	8e	-a,	.	.	.	.	.	.
4A	Ba-	4a	ba-	4C#mm	.	voice	.	67.538	C#:min7
8F#	-du-	8f#	-du-	4AM	.	voice	.	68.021	A:maj6
8E	-a,	8e	-a,	.	.	.	.	.	.
=36	=36	=36	=36	=36	=36	=36	=36	=36	=36
4A	Ba-	8r	.	2C#mm	.	voice	.	68.505	C#:min7
.	.	8a	ba-	.	.	.	.	.	.
8F#	-du-	8f#	-du-	.	.	.	.	.	.
8E	-a,	8e	-a,	.	.	.	.	.	.
4A	Ba-	4a	ba-	2F#mm	.	voice	.	69.471	F#:min11
8F#	-du-	8f#	-du-	.	.	.	.	.	.
8E	-a,	8e	-a,	.	.	.	.	.	.
=37	=37	=37	=37	=37	=37	=37	=37	=37	=37
4A	Ba-	4a	Ba-	2DMM	.	voice	.	70.438	D:maj7
8F#	-du-	8f#	-du-	.	.	.	.	.	.
8E	-a,	8e	-a,	.	.	.	.	.	.
4A	Ba-	4a	ba-	4C#mm	.	voice	.	71.404	C#:min7
8F#	-du-	8f#	-du-	4AM	.	voice	.	71.888	A:maj6
8E	-a,	8e	-a,	.	.	.	.	.	.
=38	=38	=38	=38	=38	=38	=38	=38	=38	=38
4A	Ba-	8r	.	2C#mm	.	voice	.	72.371	C#:min7
.	.	8a	ba-	.	.	.	.	.	.
8F#	-du-	8f#	-du-	.	.	.	.	.	.
8E	-a,	8e	-a,	.	.	.	.	.	.
4A	Ba-	4a	ba-	2F#mm	.	voice	.	73.337	F#:min11
8F#	-du-	8f#	-du-	.	.	.	.	.	.
8E	-a,	8e	-a,	.	.	.	.	.	.
=39	=39	=39	=39	=39	=39	=39	=39	=39	=39
4A	Ba-	4a	Ba-	2Bmm	newline	voice	.	74.304	B:min7
8F#	-du-	8f#	-du-	.	.	.	.	.	.
8E	-a,	8e	-a,	.	.	.	.	.	.
4A	Ba-	4a	ba-	2EMm	.	voice	.	75.281	E:9
8F#	-du-	8f#	-du-	.	.	.	.	.	.
8E	-a,	8e	-a,	.	.	.	.	.	.
=40	=40	=40	=40	=40	=40	=40	=40	=40	=40
4A	Ba-	8r	.	2C#mm	.	voice	.	76.258	C#:min7
.	.	8b	Ba-	.	.	.	.	.	.
8F#	-du-	8f#	-du-	.	.	.	.	.	.
8E	-a,	4.a	-a.]	.	.	.	.	.	.
4A	ba-	.	.	2F#mm	.	voice	.	77.235	F#:min7
8F#	-du	4r	.	.	.	.	.	.	.
16C#	way.]	.	.	.	.	.	D	.	.
16BB	_	.	.	.	.	.	.	.	.
=41	=41	=41	=41	=41	=41	=41	=41	=41	=41
2AA	_	1r	.	1AMm	.	voice	.	78.212	A:11
2r	.	.	.	.	.	.	.	.	.
=42	=42	=42	=42	=42	=42	=42	=42	=42	=42
2r	.	1r	.	1AMm	.	voice	.	80.167	A:11
8r	.	.	.	.	.	.	.	.	.
8c#	My	.	.	.	.	.	.	.	.
8B	thoughts	.	.	.	.	.	.	.	.
8A	are	.	.	.	.	.	.	.	.
=43	=43	=43	=43	=43	=43	=43	=43	=43	=43
8c#	with	1r	.	2DMM	newline	voice	.	82.121	D:maj7
8c#	you	.	.	.	.	.	.	.	.
4r	.	.	.	.	.	.	.	.	.
8r	.	.	.	4C#mm	.	voice	.	83.086	C#:min7
8A	Hold-	.	.	.	.	.	.	.	.
8B	-ing	.	.	4Bmm	.	voice	.	83.568	B:min7/b7
[8c#	hands	.	.	.	.	.	.	.	.
=44	=44	=44	=44	=44	=44	=44	=44	=44	=44
8c#]	_	1r	.	2C#mm	.	voice	.	84.051	C#:min7
8e	with	.	.	.	.	.	.	.	.
8f#	your	.	.	.	.	.	.	.	.
8B	heart	.	.	.	.	.	.	.	.
4A	_	.	.	2F#mm	.	voice	.	85.015	F#:min7
8c#	to	.	.	.	.	.	.	.	.
[8d	see	.	.	.	.	.	.	.	.
=45	=45	=45	=45	=45	=45	=45	=45	=45	=45
8d]	_	1r	.	2DMM	.	voice	.	85.98	D:maj7
8c#	you.	.	.	.	.	.	.	.	.
2r	.	.	.	.	.	.	.	.	.
.	.	.	.	4C#mm	.	voice	.	86.945	C#:min7
8A	On-	.	.	4Bmm	.	voice	.	87.428	B:min7/b7
8B	-ly	.	.	.	.	.	.	.	.
=46	=46	=46	=46	=46	=46	=46	=46	=46	=46
8c#	blue	1r	.	2C#mm	.	voice	.	87.91	C#:min7
8e	talk	.	.	.	.	.	.	.	.
8f#	and	.	.	.	.	.	.	.	.
16c#	love.	.	.	.	.	.	.	.	.
16B	_	.	.	.	.	.	.	.	.
4A	_	.	.	2F#mm	.	voice	.	88.875	F#:min7
8c#	Re-	.	.	.	.	.	.	.	.
8c#	-mem-	.	.	.	.	.	(A	.	.
=47	=47	=47	=47	=47	=47	=47	=47	=47	=47
4c#	-ber	1r	.	2DMM	newline	voice	a)	89.84	D:maj7
2r	.	.	.	.	.	.	.	.	.
.	.	.	.	4C#mm	.	voice	.	90.808	C#:min7
8A	how	.	.	4Bmm	.	voice	.	91.292	B:min7/b7
8B	we	.	.	.	.	.	.	.	.
=48	=48	=48	=48	=48	=48	=48	=48	=48	=48
8c#	knew	1r	.	2C#Mm	.	voice	.	91.776	C#:7
8e	love	.	.	.	.	.	.	.	.
8f#	was	.	.	.	.	.	.	.	.
16B	here	.	.	.	.	.	.	.	.
16c#	_	.	.	.	.	.	.	.	.
4B	_	.	.	2F#mm	.	voice	.	92.744	F#:min7
8A	to	.	.	.	.	.	.	.	.
8B	stay.	.	.	.	.	.	D	.	.
=49	=49	=49	=49	=49	=49	=49	=49	=49	=49
[1A	_	1r	.	1AMm	.	voice	.	93.711	A:11
=50	=50	=50	=50	=50	=50	=50	=50	=50	=50
2A]	_	1r	.	1AMm	.	voice	.	95.647	A:11
4r	.	.	.	.	.	.	.	.	.
8c#	Now	.	.	.	.	.	.	.	.
8e	De-	.	.	.	.	.	.	.	.
=51	=51	=51	=51	=51	=51	=51	=51	=51	=51
8e	-cem-	1r	.	2DMM	newline	voice	(A	97.583	D:maj7
4.e	-ber	.	.	.	.	.	a)	.	.
8r	.	.	.	4C#mm	.	voice	.	98.548	C#:min7
8c#	found	.	.	.	.	.	.	.	.
8e	the	.	.	4Bmm	.	voice	.	99.031	B:min7/b7
8g	love	.	.	.	.	.	.	.	.
=52	=52	=52	=52	=52	=52	=52	=52	=52	=52
4f#	_	1r	.	2C#mm	.	voice	.	99.513	C#:min7
8e	we	.	.	.	.	.	.	.	.
4e	shared	.	.	.	.	.	.	.	.
.	.	.	.	2F#mm	.	voice	.	100.478	F#:min7
8e	in	.	.	.	.	.	.	.	.
8f#	Sep-	.	.	.	.	.	.	.	.
8a	-tem-	.	.	.	.	.	(A	.	.
=53	=53	=53	=53	=53	=53	=53	=53	=53	=53
4.f#	-ber.	1r	.	2DMM	.	voice	a)	101.444	D:maj7
4r	.	.	.	.	.	.	.	.	.
.	.	.	.	4C#mm	.	voice	.	102.409	C#:min7
8c#	On-	.	.	.	.	.	.	.	.
8e	-ly	.	.	4Bmm	.	voice	.	102.891	B:min7/b7
8g	blue	.	.	.	.	.	.	.	.
=54	=54	=54	=54	=54	=54	=54	=54	=54	=54
8f#	_	1r	.	2C#mm	.	voice	.	103.374	C#:min7
8e	talk	.	.	.	.	.	.	.	.
8r	.	.	.	.	.	.	.	.	.
4.f#	love.	.	.	.	.	.	.	.	.
.	.	.	.	2F#mm	.	voice	.	104.339	F#:min7
8c	Re-	.	.	.	.	.	.	.	.
8c	-mem-	.	.	.	.	.	(A	.	.
=55	=55	=55	=55	=55	=55	=55	=55	=55	=55
8B	-ber	1r	.	2DMM	newline	voice	a)	105.304	D:maj7
8A	_	.	.	.	.	.	.	.	.
2r	.	.	.	.	.	.	.	.	.
.	.	.	.	4C#mm	.	voice	.	106.271	C#:min7
4r	.	.	.	4Bmm	.	voice	.	106.754	B:min7/b7
=56	=56	=56	=56	=56	=56	=56	=56	=56	=56
8c#	True	1r	.	2C#Mm	.	voice	.	107.237	C#:7
8e	love	.	.	.	.	.	.	.	.
8f#	we	.	.	.	.	.	.	.	.
16B	share	.	.	.	.	.	.	.	.
16c#	_	.	.	.	.	.	.	.	.
4B	_	.	.	2F#mm	.	voice	.	108.203	F#:min7
8A	to	.	.	.	.	.	.	.	.
8B	day	.	.	.	.	.	D	.	.
=57	=57	=57	=57	=57	=57	=57	=57	=57	=57
2.A	_	1r	.	1AMm	.	voice	.	109.17	A:11
[4A	_	.	.	.	.	.	.	.	.
=58	=58	=58	=58	=58	=58	=58	=58	=58	=58
2A]	_	8r	.	1AMm	.	voice	.	111.102	A:11
.	.	8f#	[Ah	.	.	.	.	.	.
.	.	8r	.	.	.	.	.	.	.
.	.	8a	ah	.	.	.	.	.	.
4a	_	8r	.	.	.	.	.	.	.
.	.	8b	ah.]	.	.	.	.	.	.
8r	.	8a	_	.	.	.	.	.	.
[8a	yes	8r	.	.	.	.	.	.	.
=59	=59	=59	=59	=59	=59	=59	=59	=59	=59
*>Letter>C	*>Letter>C	*>Letter>C	*>Letter>C	*>Letter>C	*>Letter>C	*>Letter>C	*>Letter>C	*>Letter>C	*>Letter>C
*>Label>Chorus	*>Label>Chorus	*>Label>Chorus	*>Label>Chorus	*>Label>Chorus	*>Label>Chorus	*>Label>Chorus	*>Label>Chorus	*>Label>Chorus	*>Label>Chorus
4a]	_	4cc#	[Ba-	2Bmm	newline	voice	.	113.035	B:min7
8f#	_	8dd	-de-	.	.	.	.	.	.
4.a	yes.	4.cc#	-ya.]	.	.	.	.	.	.
.	.	.	.	2EMm	.	voice	.	114.003	E:9
4r	.	4r	.	.	.	.	.	.	.
=60	=60	=60	=60	=60	=60	=60	=60	=60	=60
1r	.	8cc#	Say	2C#mm	.	voice	.	114.972	C#:min7
.	.	8dd	do	.	.	.	.	.	.
.	.	8cc#	you	.	.	.	.	.	.
.	.	8b	re-	.	.	.	.	.	.
.	.	4a	-mem-	2F#mm	.	voice	.	115.941	F#:min7
.	.	8b	-ber	.	.	.	.	.	.
.	.	8r	.	.	.	.	.	.	.
=61	=61	=61	=61	=61	=61	=61	=61	=61	=61
2r	.	4cc#	[Ba-	2Bmm	.	voice	.	116.909	B:min7
.	.	8dd	-de-	.	.	.	.	.	.
.	.	4.cc#	-ya]	.	.	.	.	.	.
8e	[Ooh-	.	.	2EMm	.	voice	.	117.878	E:9
[4.f#	-oh.]	.	.	.	.	.	.	.	.
.	.	4r	.	.	.	.	.	.	.
=62	=62	=62	=62	=62	=62	=62	=62	=62	=62
2f#]	_	8cc#	danc-	2AMM	.	voice	.	118.847	A:maj9/3
.	.	8dd	-ing	.	.	.	.	.	.
.	.	8cc#	in	.	.	.	.	.	.
.	.	8b	Sep-	.	.	.	.	.	.
8f#	_	4a	-tem-	2F#mm	.	voice	.	119.815	F#:min7
8e	_	.	.	.	.	.	.	.	.
8c#	_	8b	-ber?.	.	.	.	.	.	.
[8e	_	8r	.	.	.	.	.	.	.
=63	=63	=63	=63	=63	=63	=63	=63	=63	=63
4e]	_	4cc#	[Ba-	2Bmm	newline	voice	.	120.784	B:min7
4r	.	8dd	-de-	.	.	.	.	.	.
.	.	4.cc#	-ya]	.	.	.	.	.	.
8r	.	.	.	2EMm	.	voice	.	121.753	E:9
8f#	[Eh-	.	.	.	.	.	.	.	.
16f#	-hey.]	4r	.	.	.	.	.	.	.
16e	_	.	.	.	.	.	.	.	.
8f#	_	.	.	.	.	.	.	.	.
=64	=64	=64	=64	=64	=64	=64	=64	=64	=64
4e	_	8cc#	ne-	2C#mm	.	voice	.	122.722	C#:min7
.	.	8dd	-ver	.	.	.	.	.	.
2r	.	8cc#	was	.	.	.	.	.	.
.	.	8b	a	.	.	.	.	.	.
.	.	4a	cloud-	2F#mm	.	voice	.	123.691	F#:min7
4r	.	8f#	-y	.	.	.	.	.	.
.	.	8b	day.	.	.	.	D	.	.
=65	=65	=65	=65	=65	=65	=65	=65	=65	=65
1r	.	[1a	_	1AMm	.	voice	.	124.66	A:11
=66	=66	=66	=66	=66	=66	=66	=66	=66	=66
*clefG2	*	*	*	*	*	*	*	*	*
2r	.	2a]	_	1AMm	.	voice	.	126.598	A:11
8r	.	8r	.	.	.	.	.	.	.
8f#	There	8f#	There	.	.	.	.	.	.
8a	was	8a	was	.	.	.	.	.	.
8b	a	8b	a	.	.	.	.	.	.
=67	=67	=67	=67	=67	=67	=67	=67	=67	=67
4cc#	Ba-	4cc#	Ba-	2Bmm	newline	voice	.	128.535	B:min7
8dd	-de-	8dd	-de-	.	.	.	.	.	.
4.cc#	-ya	4.cc#	-ya.	.	.	.	.	.	.
.	.	.	.	2EMm	.	voice	.	129.507	E:9
8b	de-	4r	.	.	.	.	.	.	.
[8a	-ya	.	.	.	.	.	.	.	.
=68	=68	=68	=68	=68	=68	=68	=68	=68	=68
4a]	_	8cc#	Say	2C#mm	.	voice	.	130.479	C#:min7
.	.	8dd	do	.	.	.	.	.	.
8b	de-	8cc#	you	.	.	.	.	.	.
4.f#	-ya.	8b	re-	.	.	.	(A	.	.
.	.	4a	-mem-	2F#mm	.	voice	.	131.45	F#:min7
4r	.	8b	-ber	.	.	.	a)	.	.
.	.	8r	.	.	.	.	.	.	.
=69	=69	=69	=69	=69	=69	=69	=69	=69	=69
4cc#	[Ba-	4cc#	[Ba-	2Bmm	.	voice	.	132.422	B:min7
8dd	-de-	8dd	-de-	.	.	.	.	.	.
4.cc#	-ya	4.cc#	-ya]	.	.	.	.	.	.
.	.	.	.	2EMm	.	voice	.	133.394	E:9
8b	de-	4r	.	.	.	.	.	.	.
[8a	-ya	.	.	.	.	.	.	.	.
=70	=70	=70	=70	=70	=70	=70	=70	=70	=70
4a]	_	8cc#	danc-	2AMM	.	voice	.	134.365	A:maj9/3
.	.	8dd	-ing	.	.	.	.	.	.
8b	de-	8cc#	in	.	.	.	.	.	.
4.f#	-ya.]	8b	Sep-	.	.	.	.	.	.
.	.	4a	-tem-	2F#mm	.	voice	(A	135.337	F#:min7
4r	.	8b	-ber?.	.	.	.	a)	.	.
.	.	8r	.	.	.	.	.	.	.
=71	=71	=71	=71	=71	=71	=71	=71	=71	=71
4cc#	[Ba-	4cc#	[Ba-	2Bmm	newline	voice	.	136.309	B:min7
8dd	-de-	8dd	-de-	.	.	.	.	.	.
4.cc#	-ya	4.cc#	-ya]	.	.	.	.	.	.
.	.	.	.	2EMm	.	voice	.	.	E:9
8b	de-	4r	.	.	.	.	.	.	.
[8a	-ya	.	.	.	.	.	.	.	.
=72	=72	=72	=72	=72	=72	=72	=72	=72	=72
4a]	_	8cc#	Gol-	2C#mm	.	voice	.	.	C#:min7
.	.	8dd	-den	.	.	.	.	.	.
8b	de-	8cc#	dreams	.	.	.	.	.	.
4f#	-ya.	8b	were	.	.	.	.	.	.
.	.	4a	shi-	2F#mm	.	voice	.	.	F#:min7
8r	.	.	.	.	.	.	.	.	.
8b	de-	8f#	-ny	.	.	.	.	.	.
[8ee	-ya.]	8b	days.	.	.	.	D	.	.
=73	=73	=73	=73	=73	=73	=73	=73	=73	=73
1ee_	_	[1a	_	1AMm	.	voice	.	.	A:11
=74	=74	=74	=74	=74	=74	=74	=74	=74	=74
2ee]	_	2a]	_	1AMm	.	voice	.	.	A:11
2r	.	2r	.	.	.	.	.	.	.
=75	=75	=75	=75	=75	=75	=75	=75	=75	=75
*>Letter>D	*>Letter>D	*>Letter>D	*>Letter>D	*>Letter>D	*>Letter>D	*>Letter>D	*>Letter>D	*>Letter>D	*>Letter>D
*>Label>Bridge	*>Label>Bridge	*>Label>Bridge	*>Label>Bridge	*>Label>Bridge	*>Label>Bridge	*>Label>Bridge	*>Label>Bridge	*>Label>Bridge	*>Label>Bridge
8r	.	1r	.	2Bmm	newline	voice	.	.	B:min7
8e	The	.	.	.	.	.	.	.	.
8r	.	.	.	.	.	.	.	.	.
8e	bell	.	.	.	.	.	.	.	.
8r	.	.	.	2EMm	.	voice	.	.	E:9
8e	was	.	.	.	.	.	.	.	.
8r	.	.	.	.	.	.	.	.	.
8g	ring-	.	.	.	.	.	(C	.	.
=76	=76	=76	=76	=76	=76	=76	=76	=76	=76
4f#	-ing.	1r	.	2C#mm	.	voice	c)	.	C#:min7
8e	_	.	.	.	.	.	.	.	.
4r	.	.	.	.	.	.	.	.	.
.	.	.	.	2F#mm	.	voice	.	.	F#:min7
8e	a-	.	.	.	.	.	.	.	.
8e	-ha.	.	.	.	.	.	.	.	.
8f#	_	.	.	.	.	.	.	.	.
=77	=77	=77	=77	=77	=77	=77	=77	=77	=77
8r	.	1r	.	2Bmm	.	voice	.	.	B:min7
8e	Our	.	.	.	.	.	.	.	.
8r	.	.	.	.	.	.	.	.	.
[8a	souls	.	.	.	.	.	.	.	.
4.a]	_	.	.	2EMm	.	voice	.	.	E:9
8f#	were	.	.	.	.	.	.	.	.
=78	=78	=78	=78	=78	=78	=78	=78	=78	=78
8g	sing-	1r	.	2AMM	.	voice	(C	.	A:maj9/3
16f#	-ing.	.	.	.	.	.	c)	.	.
16g	_	.	.	.	.	.	.	.	.
[4f#	_	.	.	.	.	.	.	.	.
8f#]	_	.	.	2F#mm	.	voice	.	.	F#:min7
4e	_	.	.	.	.	.	.	.	.
8r	.	.	.	.	.	.	.	.	.
=79	=79	=79	=79	=79	=79	=79	=79	=79	=79
8r	.	1r	.	2Bmm	newline	voice	.	.	B:min7
8c#	Do	.	.	.	.	.	.	.	.
8e	you	.	.	.	.	.	.	.	.
8c#	re-	.	.	.	.	.	.	.	.
8e	-mem-	.	.	2EMm	.	voice	(A	.	E:9
4.f#	-ber?.	.	.	.	.	.	a)	.	.
=80	=80	=80	=80	=80	=80	=80	=80	=80	=80
8c#	ne-	1r	.	2C#mm	.	voice	.	.	C#:min7
8e	-ver	.	.	.	.	.	.	.	.
8f#	a	.	.	.	.	.	.	.	.
16B	cloud-	.	.	.	.	.	.	.	.
16c#	_	.	.	.	.	.	.	.	.
4B	_	.	.	2F#mm	.	voice	.	.	F#:min7
8A	-y	.	.	.	.	.	.	.	.
16B	day	.	.	.	.	.	D	.	.
[16F#	_	.	.	.	.	.	.	.	.
=81	=81	=81	=81	=81	=81	=81	=81	=81	=81
8F#]	_	1r	.	1AMm	.	voice	.	.	A:11
4r	.	.	.	.	.	.	.	.	.
[8A	yaow.	.	.	.	.	.	.	.	.
4A]	_	.	.	.	.	.	.	.	.
4r	.	.	.	.	.	.	.	.	.
=82	=82	=82	=82	=82	=82	=82	=82	=82	=82
2r	.	2r	.	1AMm	.	voice	.	.	A:11
8r	.	8r	.	.	.	.	.	.	.
8f#	And	8f#	And	.	.	.	.	.	.
8a	we	8a	we	.	.	.	.	.	.
8b	said	8b	said	.	.	.	.	.	.
=83	=83	=83	=83	=83	=83	=83	=83	=83	=83
*>Letter>C	*>Letter>C	*>Letter>C	*>Letter>C	*>Letter>C	*>Letter>C	*>Letter>C	*>Letter>C	*>Letter>C	*>Letter>C
*>Label>Chorus	*>Label>Chorus	*>Label>Chorus	*>Label>Chorus	*>Label>Chorus	*>Label>Chorus	*>Label>Chorus	*>Label>Chorus	*>Label>Chorus	*>Label>Chorus
4cc#	Ba-	4cc#	Ba-	2Bmm	newline	voice	.	.	B:min7
8dd	-de-	8dd	-de-	.	.	.	.	.	.
4.cc#	-ya	4.cc#	-ya.	.	.	.	.	.	.
.	.	.	.	2EMm	.	voice	.	.	E:9
8b	de-	4r	.	.	.	.	.	.	.
[8a	-ya	.	.	.	.	.	.	.	.
=84	=84	=84	=84	=84	=84	=84	=84	=84	=84
4a]	_	8cc#	Say	2C#mm	.	voice	.	.	C#:min7
.	.	8dd	do	.	.	.	.	.	.
8b	de-	8cc#	you	.	.	.	.	.	.
4.f#	-ya.	8b	re-	.	.	.	.	.	.
.	.	4a	-mem-	2F#mm	.	voice	(A	.	F#:min7
4r	.	8b	-ber	.	.	.	a)	.	.
.	.	8r	.	.	.	.	.	.	.
=85	=85	=85	=85	=85	=85	=85	=85	=85	=85
4cc#	[Ba-	4cc#	[Ba-	2Bmm	.	voice	.	.	B:min7
8dd	-de-	8dd	-de-	.	.	.	.	.	.
4.cc#	-ya	4.cc#	-ya]	.	.	.	.	.	.
.	.	.	.	2EMm	.	voice	.	.	E:9
8b	de-	4r	.	.	.	.	.	.	.
[8a	-ya	.	.	.	.	.	.	.	.
=86	=86	=86	=86	=86	=86	=86	=86	=86	=86
4a]	_	8cc#	danc-	2AMM	.	voice	.	.	A:maj9/3
.	.	8dd	-ing	.	.	.	.	.	.
8b	de-	8cc#	in	.	.	.	.	.	.
4.f#	-ya]	8b	Sep-	.	.	.	.	.	.
.	.	4a	-tem-	2F#mm	.	voice	(A	.	F#:min7
4r	.	8b	-ber?.	.	.	.	a)	.	.
.	.	8r	.	.	.	.	.	.	.
=87	=87	=87	=87	=87	=87	=87	=87	=87	=87
4cc#	[Ba-	4cc#	[Ba-	2Bmm	newline	voice	.	.	B:min7
8dd	-de-	8dd	-de-	.	.	.	.	.	.
4.cc#	-ya	4.cc#	-ya]	.	.	.	.	.	.
.	.	.	.	2EMm	.	voice	.	.	E:9
8b	de-	4r	.	.	.	.	.	.	.
[8a	-ya	.	.	.	.	.	.	.	.
=88	=88	=88	=88	=88	=88	=88	=88	=88	=88
4a]	_	8cc#	ne-	2C#mm	.	voice	.	.	C#:min7
.	.	8dd	-ver	.	.	.	.	.	.
8b	de-	8cc#	was	.	.	.	.	.	.
4f#	-ya.	8b	a	.	.	.	.	.	.
.	.	4a	cloud-	2F#mm	.	voice	.	.	F#:min7
8r	.	.	.	.	.	.	.	.	.
8b	de-	8f#	-y	.	.	.	.	.	.
[8ee	-ya]	8b	day.	.	.	.	D	.	.
=89	=89	=89	=89	=89	=89	=89	=89	=89	=89
1ee_	_	[1a	_	1AMm	.	voice	.	.	A:11
=90	=90	=90	=90	=90	=90	=90	=90	=90	=90
2ee]	_	2a]	_	1AMm	.	voice	.	.	A:11
8r	.	8r	.	.	.	.	.	.	.
8f#	And	8f#	And	.	.	.	.	.	.
8a	we	8a	we	.	.	.	.	.	.
8b	said	8b	said	.	.	.	.	.	.
=91	=91	=91	=91	=91	=91	=91	=91	=91	=91
4cc#	Ba-	4cc#	Ba-	2Bmm	newline	voice	.	.	B:min7
8dd	-de-	8dd	-de-	.	.	.	.	.	.
4.cc#	-ya	4.cc#	-ya.	.	.	.	.	.	.
.	.	.	.	2EMm	.	voice	.	.	E:9
8b	de-	4r	.	.	.	.	.	.	.
[8a	-ya	.	.	.	.	.	.	.	.
=92	=92	=92	=92	=92	=92	=92	=92	=92	=92
4a]	_	8cc#	Say	2C#mm	.	voice	.	.	C#:min7
.	.	8dd	do	.	.	.	.	.	.
8b	de-	8cc#	you	.	.	.	.	.	.
4.f#	-ya.	8b	re-	.	.	.	.	.	.
.	.	4a	-mem-	2F#mm	.	voice	(A	.	F#:min7
4r	.	8b	-ber	.	.	.	a)	.	.
.	.	8r	.	.	.	.	.	.	.
=93	=93	=93	=93	=93	=93	=93	=93	=93	=93
4cc#	[Ba-	4cc#	[Ba-	2Bmm	.	voice	.	.	B:min7
8dd	-de-	8dd	-de-	.	.	.	.	.	.
4.cc#	-ya	4.cc#	-ya]	.	.	.	.	.	.
.	.	.	.	2EMm	.	voice	.	.	E:9
8b	de-	4r	.	.	.	.	.	.	.
[8a	-ya	.	.	.	.	.	.	.	.
=94	=94	=94	=94	=94	=94	=94	=94	=94	=94
4a]	_	8cc#	danc-	2AMM	.	voice	.	.	A:maj9/3
.	.	8dd	-ing	.	.	.	.	.	.
8b	de-	8cc#	in	.	.	.	.	.	.
4.f#	-ya.]	8b	Sep-	.	.	.	.	.	.
.	.	4a	-tem-	2F#mm	.	voice	(A	.	F#:min7
4r	.	8b	-ber?.	.	.	.	a)	.	.
.	.	8r	.	.	.	.	.	.	.
=95	=95	=95	=95	=95	=95	=95	=95	=95	=95
4cc#	[Ba-	4cc#	Ba-	2Bmm	newline	voice	.	.	B:min7
8dd	-de-	8dd	-de-	.	.	.	.	.	.
4.cc#	-ya	4.cc#	-ya	.	.	.	.	.	.
.	.	.	.	2EMm	.	voice	.	.	E:9
8b	de-	4r	.	.	.	.	.	.	.
[8a	-ya	.	.	.	.	.	.	.	.
=96	=96	=96	=96	=96	=96	=96	=96	=96	=96
4a]	_	8cc#	gol-	2C#mm	.	voice	.	.	C#:min7
.	.	8dd	-den	.	.	.	.	.	.
8b	de-	8cc#	dreams	.	.	.	.	.	.
4f#	-ya	8b	were	.	.	.	.	.	.
.	.	4a	shi-	2F#mm	.	voice	.	.	F#:min7
8r	.	.	.	.	.	.	.	.	.
8b	de-	8f#	-ny	.	.	.	.	.	.
[8ee	-ya.]	8b	days.	.	.	.	D	.	.
=97	=97	=97	=97	=97	=97	=97	=97	=97	=97
1ee_	_	[1a	_	1AMm	.	voice	.	.	A:11
=98	=98	=98	=98	=98	=98	=98	=98	=98	=98
2ee]	_	2a]	_	1AMm	.	voice	.	.	A:11
2r	.	2r	.	.	.	.	.	.	.
=99	=99	=99	=99	=99	=99	=99	=99	=99	=99
4cc#	[Ba-	4cc#	[Ba-	2Bmm	newline	voice	.	.	B:min7
8dd	-de-	8dd	-de-	.	.	.	.	.	.
4.cc#	-ya	4.cc#	-ya	.	.	.	.	.	.
.	.	.	.	2EMm	.	voice	.	.	E:9
8b	de-	8b	de-	.	.	.	.	.	.
[8a	-ya	[8a	-ya	.	.	.	.	.	.
=100	=100	=100	=100	=100	=100	=100	=100	=100	=100
4a]	_	4a]	_	2C#mm	.	voice	.	.	C#:min7
8b	de-	8b	de-	.	.	.	.	.	.
4.f#	-ya.]	4.f#	-ya.]	.	.	.	.	.	.
.	.	.	.	2F#mm	.	voice	.	.	F#:min7
4r	.	4r	.	.	.	.	.	.	.
=101	=101	=101	=101	=101	=101	=101	=101	=101	=101
4cc#	[Ba-	4cc#	[Ba-	2Bmm	.	voice	.	.	B:min7
8dd	-de-	8dd	-de-	.	.	.	.	.	.
4.cc#	-ya	4.cc#	-ya	.	.	.	.	.	.
.	.	.	.	2EMm	.	voice	.	.	E:9
8b	de-	8b	de-	.	.	.	.	.	.
[8a	-ya	[8a	-ya	.	.	.	.	.	.
=102	=102	=102	=102	=102	=102	=102	=102	=102	=102
4a]	_	4a]	_	2AMM	.	voice	.	.	A:maj9/3
8b	de-	8b	de-	.	.	.	.	.	.
4.f#	-ya.]	4.f#	-ya.]	.	.	.	.	.	.
.	.	.	.	2F#mm	.	voice	.	.	F#:min7
4r	.	4r	.	.	.	.	.	.	.
=103	=103	=103	=103	=103	=103	=103	=103	=103	=103
4cc#	[Ba-	4cc#	[Ba-	2Bmm	newline	voice	.	.	B:min7
8dd	-de-	8dd	-de-	.	.	.	.	.	.
4.cc#	-ya	4.cc#	-ya	.	.	.	.	.	.
.	.	.	.	2EMm	.	voice	.	.	E:9
8b	de-	8b	de-	.	.	.	.	.	.
[8a	-ya	[8a	-ya	.	.	.	.	.	.
=104	=104	=104	=104	=104	=104	=104	=104	=104	=104
4a]	_	4a]	_	2C#mm	.	voice	.	.	C#:min7
8b	de-	8b	de-	.	.	.	.	.	.
4f#	-ya	4f#	-ya	.	.	.	.	.	.
.	.	.	.	2F#mm	.	voice	.	.	F#:min7
8r	.	8r	.	.	.	.	.	.	.
8b	de-	8b	de-	.	.	.	.	.	.
[8ee	-ya.]	[8a	-ya.]	.	.	.	.	.	.
=105	=105	=105	=105	=105	=105	=105	=105	=105	=105
1ee_	_	1a_	_	1AMm	.	voice	.	.	A:11
=106	=106	=106	=106	=106	=106	=106	=106	=106	=106
2ee]	_	2a]	_	1AMm	.	voice	.	.	A:11
2r	.	2r	.	.	.	.	.	.	.
=107	=107	=107	=107	=107	=107	=107	=107	=107	=107
4cc#	[Ba-	4cc#	[Ba-	2Bmm	newline	voice	.	.	B:min7
8dd	-de-	8dd	-de-	.	.	.	.	.	.
4.cc#	-ya	4.cc#	-ya	.	.	.	.	.	.
.	.	.	.	2EMm	.	voice	.	.	E:9
8b	de-	8b	de-	.	.	.	.	.	.
[8a	-ya	[8a	-ya	.	.	.	.	.	.
=108	=108	=108	=108	=108	=108	=108	=108	=108	=108
4a]	_	4a]	_	2C#mm	.	voice	.	.	C#:min7
8b	de-	8b	de-	.	.	.	.	.	.
4.f#	-ya]	4.f#	-ya]	.	.	.	.	.	.
.	.	.	.	2F#mm	.	voice	.	.	F#:min7
4r	.	4r	.	.	.	.	.	.	.
=109	=109	=109	=109	=109	=109	=109	=109	=109	=109
4cc#	[Ba-	4cc#	[Ba-	2Bmm	.	voice	.	.	B:min7
8dd	-de-	8dd	-de-	.	.	.	.	.	.
4.cc#	-ya	4.cc#	-ya	.	.	.	.	.	.
.	.	.	.	2EMm	.	voice	.	.	E:9
8b	de-	8b	de-	.	.	.	.	.	.
[8a	-ya	[8a	-ya	.	.	.	.	.	.
=110	=110	=110	=110	=110	=110	=110	=110	=110	=110
4a]	_	4a]	_	2AMM	.	voice	.	.	A:maj9/3
8b	de-	8b	de-	.	.	.	.	.	.
4.f#	-ya]	4.f#	-ya]	.	.	.	.	.	.
.	.	.	.	2F#mm	.	voice	.	.	F#:min7
4r	.	4r	.	.	.	.	.	.	.
=111	=111	=111	=111	=111	=111	=111	=111	=111	=111
4cc#	[Ba-	4cc#	[Ba-	2Bmm	newline	voice	.	.	B:min7
8dd	-de-	8dd	-de-	.	.	.	.	.	.
4.cc#	-ya	4.cc#	-ya	.	.	.	.	.	.
.	.	.	.	2EMm	.	voice	.	.	E:9
8b	de-	8b	de-	.	.	.	.	.	.
[8a	-ya	[8a	-ya	.	.	.	.	.	.
=112	=112	=112	=112	=112	=112	=112	=112	=112	=112
4a]	_	4a]	_	2C#mm	.	voice	.	.	C#:min7
8b	de-	8b	de-	.	.	.	.	.	.
4f#	-ya	4f#	-ya	.	.	.	.	.	.
.	.	.	.	2F#mm	.	voice	.	.	F#:min7
8r	.	8r	.	.	.	.	.	.	.
8b	de-	8b	de-	.	.	.	.	.	.
[8ee	-ya.]	[8a	-ya.]	.	.	.	.	.	.
=113	=113	=113	=113	=113	=113	=113	=113	=113	=113
1ee_	_	1a_	_	1AMm	.	voice	.	.	A:11
=114	=114	=114	=114	=114	=114	=114	=114	=114	=114
2ee]	_	2a]	_	1AMm	.	voice	.	.	A:11
2r	.	2r	.	.	.	.	.	.	.
*-	*-	*-	*-	*-	*-	*-	*-	*-	*-
!!!BillboardChartDate: 1979/01/06
!!!BillboardPeak: 8
!!!BillboardWeeksOnChart: 17
!!!COC: Earth, Wind & Fire
!!!EMD: The song is the key of A, not D, as the harmonic transcription originally had. (I also believe the A chord at the end of each phrase is not a dominant chord).
!!!EMD: This harmonic transcription was way too short. I added the material to match the correct recording (just repeating the same chord progression).
!!!ENC: Nathaniel Condit-Schultz
!!!EST: Awating manual error checking and editing.
!!!OTL: September
!!!RDF**chordsym: original McGill chord annotation + (implied pitch class set, with bass pitch in first position)
!!!RDF**harmony: **recip + pitch class of root + harmonic quality
!!!RDF**leadinstrument: original McGill primary instrumentation annotation
!!!RDF**phrase: newline = linebreak in original McGill transcription
!!!RDF**timestamp: McGill audio timestamp in seconds
!!!RDT: 2017/01/12/
!!!SampleActualRank: 15
!!!SampleID#: 0804
!!!SampleTargetRank: 16
